X: 40
T: No_46_The_Neglected_Wife_Goes_Away.krn
N: Derived from No_46_The_Neglected_Wife_Goes_Away.krn
%%abc-version 2.0
%%abcx-abcm2ps-target-version 5.9.1 (29 Sep 2008)
%%abc-creator hum2abc beta
%%abcx-conversion-date 2019/03/15 08:35:01
%%humdrum-veritas 2786682851
%%humdrum-veritas-data 304380197
%%linebreak <none>
%%barnumbers 0
L: 1/8
M: 5/8
K: G clef=bass
[K:clef=bass][M:5/8]DDD2B, | 
[M:4/8]C B,A,2 | 
[M:7/8]G,G,G,2G,G,E, | 
[M:4/8]G, E, E, D,/ z/ ]|:  
[M:5/8]DDD2B, | 
CCD2B, | 
(CA,)A,2G, | 
A,A,C2A, | 
(A,G,)G,2E, | 
G,E,E,2z | 
[M:7/8]C2A,2G,A,A, | 
[M:5/8]G,2E,G,G, | 
G,2E,G,E, | 
[M:3/8]E,D,D,/ z/ | 
[M:5/8]CB,A,2G, | 
A,A,C2A, | 
A,A,G,2E, | 
G,E,E,2z | 
[M:7/8]C2A,2G,A,A, | 
[M:5/8]G,2E,G,G, | 
G,2E,G,E, | 
E,D,D,/ z/z2 :|]  



